src/images/element__button-delete.svg

<svg width="100" height="29" viewBox="0 0 100 29" fill="none" xmlns="http://www.w3.org/2000/svg">
<rect width="100" height="29" rx="14.5" fill="#313131"/>
<path fill-rule="evenodd" clip-rule="evenodd" d="M51.0608 14.3822L53.3 12.1429L52.2394 11.0823L50.0001 13.3215L47.761 11.0824L46.7003 12.1431L48.9395 14.3822L46.5825 16.7391L47.6432 17.7998L50.0001 15.4429L52.3572 17.7999L53.4178 16.7392L51.0608 14.3822Z" fill="white"/>
</svg>

<svg width="100" height="29" fill="none" xmlns="http://www.w3.org/2000/svg"><rect width="100" height="29" rx="14.5" fill="#313131"/><path fill-rule="evenodd" clip-rule="evenodd" d="m51.06 14.382 2.24-2.24-1.06-1.06-2.24 2.24-2.239-2.24-1.06 1.061 2.239 2.24-2.357 2.356 1.06 1.06L50 15.444l2.357 2.357 1.06-1.06-2.356-2.358Z" fill="#fff"/></svg>
